usr/share/icons/biglinux-icons-material/symbolic/apps/gnome-power-manager-symbolic.svg

<svg width="16" height="16" enable-background="new" version="1.1" xmlns="http://www.w3.org/2000/svg">
 <g fill="#363636" stroke-linecap="round" stroke-linejoin="round" stroke-width="4" style="paint-order:stroke fill markers" aria-label="">
  <path d="m16 8v2h-1v4h-11v-1h10v-8h-8v-1h9v4zm-11-1.5c0 0.29167-0.052083 0.57292-0.15625 0.84375-0.09375 0.27083-0.22917 0.51562-0.40625 0.73438s-0.39062 0.40625-0.64062 0.5625c-0.23958 0.14583-0.50521 0.25-0.79688 0.3125v5.0469h-1v-5.0469c-0.29167-0.0625-0.5625-0.16667-0.8125-0.3125-0.23958-0.15625-0.44792-0.34375-0.625-0.5625s-0.31771-0.46354-0.42188-0.73438c-0.09375-0.27083-0.14062-0.55208-0.14062-0.84375v-2.5h1v-2h1v2h1v-2h1v2h1zm-4 0c0 0.41667 0.14583 0.77083 0.4375 1.0625s0.64583 0.4375 1.0625 0.4375 0.77083-0.14583 1.0625-0.4375 0.4375-0.64583 0.4375-1.0625v-1.5h-3zm3 3.1562c0.60417-0.29167 1.0885-0.71875 1.4531-1.2812 0.36458-0.57292 0.54688-1.1979 0.54688-1.875v-0.5h7v6h-9z" stroke-width="4"/>
 </g>
</svg>

<svg xmlns="http://www.w3.org/2000/svg" width="16" height="16"><path fill="#dedede" stroke-linecap="round" stroke-linejoin="round" stroke-width="4" d="M16 8v2h-1v4H4v-1h10V5H6V4h9v4zM5 6.5c0 .292-.052.573-.156.844-.094.27-.23.515-.407.734s-.39.406-.64.563c-.24.145-.505.25-.797.312V14H2V8.953a2.741 2.741 0 0 1-.813-.312A2.687 2.687 0 0 1 .141 7.344 2.561 2.561 0 0 1 0 6.5V4h1V2h1v2h1V2h1v2h1zm-4 0c0 .417.146.77.438 1.063S2.083 8 2.5 8s.77-.146 1.063-.438S4 6.918 4 6.5V5H1zm3 3.156a3.528 3.528 0 0 0 1.453-1.281A3.425 3.425 0 0 0 6 6.5V6h7v6H4z" aria-label="" style="paint-order:stroke fill markers"/></svg>
